src/assets/icons/instagram.svg

<svg width="12" height="12" viewBox="0 0 12 12" fill="none" xmlns="http://www.w3.org/2000/svg">
<path d="M6 4.84572C5.71744 4.84582 5.44126 4.92385 5.20638 5.06997C4.97149 5.21608 4.78845 5.42371 4.68039 5.66659C4.57233 5.90948 4.54412 6.17672 4.5993 6.43452C4.65449 6.69232 4.79061 6.92912 4.99045 7.11496C5.19028 7.3008 5.44486 7.42734 5.722 7.47859C5.99913 7.52983 6.28638 7.50348 6.54742 7.40286C6.80846 7.30225 7.03157 7.13188 7.18854 6.91331C7.3455 6.69474 7.42929 6.43777 7.42929 6.1749C7.429 5.82238 7.27831 5.48437 7.01031 5.23514C6.74231 4.98591 6.37893 4.84585 6 4.84572ZM9.34045 3.82403C9.26771 3.65255 9.15788 3.4968 9.01776 3.36644C8.87764 3.23609 8.71022 3.13391 8.52589 3.06624C7.96339 2.85966 6.62411 2.90601 6 2.90601C5.37589 2.90601 4.03795 2.85792 3.47384 3.06624C3.28951 3.13391 3.12209 3.23609 2.98197 3.36644C2.84185 3.4968 2.73202 3.65255 2.65929 3.82403C2.4375 4.34733 2.48705 5.59454 2.48705 6.17465C2.48705 6.75477 2.4375 8.00048 2.66036 8.52553C2.73309 8.69701 2.84293 8.85276 2.98305 8.98312C3.12317 9.11347 3.29058 9.21565 3.47491 9.28332C4.03741 9.4899 5.3767 9.44355 6.00107 9.44355C6.62545 9.44355 7.96286 9.49164 8.52696 9.28332C8.71129 9.21565 8.87871 9.11347 9.01883 8.98312C9.15895 8.85276 9.26878 8.69701 9.34152 8.52553C9.56518 8.00222 9.51375 6.75502 9.51375 6.1749C9.51375 5.59479 9.56518 4.34933 9.34152 3.82428L9.34045 3.82403ZM6 8.21827C5.56559 8.21827 5.14093 8.09843 4.77973 7.8739C4.41853 7.64937 4.13701 7.33024 3.97076 6.95687C3.80452 6.58349 3.76103 6.17264 3.84578 5.77626C3.93052 5.37989 4.13971 5.01579 4.44689 4.73002C4.75407 4.44425 5.14543 4.24964 5.5715 4.1708C5.99756 4.09195 6.43919 4.13242 6.84054 4.28708C7.24188 4.44173 7.58492 4.70364 7.82626 5.03967C8.06761 5.3757 8.19643 5.77076 8.19643 6.1749C8.19678 6.44334 8.14021 6.70919 8.02995 6.95725C7.9197 7.20532 7.75792 7.43071 7.5539 7.62052C7.34987 7.81033 7.1076 7.96083 6.84095 8.0634C6.57431 8.16597 6.28854 8.2186 6 8.21827ZM8.28696 4.52277C8.18555 4.52281 8.08641 4.49488 8.00206 4.44251C7.91772 4.39013 7.85196 4.31565 7.81312 4.22851C7.77428 4.14136 7.76408 4.04545 7.78384 3.95292C7.80359 3.86038 7.85239 3.77537 7.92408 3.70864C7.99577 3.64192 8.08712 3.59647 8.18658 3.57804C8.28604 3.55962 8.38913 3.56905 8.48283 3.60514C8.57652 3.64123 8.65661 3.70237 8.71295 3.78081C8.7693 3.85925 8.79938 3.95147 8.79938 4.04581C8.79966 4.10846 8.78664 4.17055 8.76107 4.22851C8.73551 4.28647 8.69789 4.33916 8.65038 4.38357C8.60288 4.42797 8.54641 4.46321 8.48423 4.48727C8.42205 4.51133 8.35538 4.52373 8.28804 4.52376L8.28696 4.52277ZM10.7143 0.593018H1.28571C0.944722 0.593018 0.617695 0.719037 0.376577 0.943353C0.135459 1.16767 0 1.47191 0 1.78914L0 10.5607C0 10.8779 0.135459 11.1821 0.376577 11.4065C0.617695 11.6308 0.944722 11.7568 1.28571 11.7568H10.7143C11.0553 11.7568 11.3823 11.6308 11.6234 11.4065C11.8645 11.1821 12 10.8779 12 10.5607V1.78914C12 1.47191 11.8645 1.16767 11.6234 0.943353C11.3823 0.719037 11.0553 0.593018 10.7143 0.593018ZM10.2557 7.81957C10.2212 8.45824 10.0645 9.02416 9.5633 9.48915C9.06214 9.95414 8.45438 10.1029 7.76866 10.1333C7.06125 10.1704 4.94036 10.1704 4.23295 10.1333C3.54643 10.1012 2.94027 9.95514 2.4383 9.48915C1.93634 9.02316 1.77857 8.457 1.74589 7.81957C1.70598 7.1612 1.70598 5.18786 1.74589 4.53024C1.78045 3.89156 1.93527 3.32565 2.4383 2.86066C2.94134 2.39567 3.54911 2.24864 4.23295 2.21824C4.94036 2.18111 7.06125 2.18111 7.76866 2.21824C8.45518 2.25039 9.06321 2.39642 9.5633 2.8624C10.0634 3.32839 10.223 3.89455 10.2557 4.53323C10.2956 5.1891 10.2956 7.16071 10.2557 7.81957Z" fill="#515152"/>
</svg>

<svg width="12" height="12" fill="none" xmlns="http://www.w3.org/2000/svg"><path d="M6 4.846c-.283 0-.559.078-.794.224a1.355 1.355 0 0 0-.526.597c-.108.242-.136.51-.08.768.054.257.19.494.39.68.2.186.455.312.732.364.277.05.564.024.825-.076s.485-.271.642-.49c.157-.218.24-.475.24-.738 0-.353-.15-.69-.419-.94A1.486 1.486 0 0 0 6 4.845zm3.34-1.022a1.342 1.342 0 0 0-.322-.458 1.46 1.46 0 0 0-.492-.3c-.563-.206-1.902-.16-2.526-.16-.624 0-1.962-.048-2.526.16a1.46 1.46 0 0 0-.492.3c-.14.13-.25.287-.323.458-.221.523-.172 1.77-.172 2.35 0 .58-.05 1.826.173 2.352.073.171.183.327.323.457s.308.233.492.3c.562.207 1.902.16 2.526.16.624 0 1.962.049 2.526-.16a1.46 1.46 0 0 0 .492-.3c.14-.13.25-.286.323-.457.223-.524.172-1.771.172-2.351 0-.58.051-1.826-.172-2.35l-.002-.001zM6 8.218c-.434 0-.86-.12-1.22-.344a2.083 2.083 0 0 1-.81-.917 1.911 1.911 0 0 1-.124-1.18c.085-.397.294-.761.6-1.047.308-.286.7-.48 1.126-.56a2.35 2.35 0 0 1 1.269.117c.4.155.744.417.985.753a1.918 1.918 0 0 1 .204 1.918c-.11.247-.272.473-.476.663-.204.19-.446.34-.713.442A2.337 2.337 0 0 1 6 8.218zm2.287-3.695a.54.54 0 0 1-.285-.08.486.486 0 0 1-.189-.214.446.446 0 0 1-.03-.276.468.468 0 0 1 .141-.244.549.549 0 0 1 .559-.103.507.507 0 0 1 .23.175.454.454 0 0 1-.063.603.516.516 0 0 1-.362.14l-.001-.001zm2.427-3.93H1.286c-.341 0-.668.126-.91.35A1.155 1.155 0 0 0 0 1.79v8.772c0 .317.135.621.377.845.24.225.568.35.909.35h9.428c.341 0 .668-.125.91-.35.24-.224.376-.528.376-.845V1.789c0-.317-.136-.621-.377-.846a1.336 1.336 0 0 0-.909-.35zm-.458 7.227c-.035.638-.191 1.204-.693 1.67-.5.464-1.109.613-1.794.643-.708.037-2.829.037-3.536 0-.687-.032-1.293-.178-1.795-.644s-.66-1.032-.692-1.67c-.04-.658-.04-2.631 0-3.289.034-.638.19-1.204.692-1.67.503-.464 1.111-.611 1.795-.642a56.129 56.129 0 0 1 3.536 0c.686.032 1.294.178 1.794.644s.66 1.033.693 1.671c.04.656.04 2.628 0 3.287z" fill="#515152"/></svg>
